X:283
T:Sergeant Early's dream
R:Reel
O:Ireland
B:O'Neill's 1419
B:Music from Ireland Vol. 3
S:1 Music from Ireland Vol. 3
Z:1 Transcription, arrangement, chords:Mike Long
S:2 O'Neill's 1419
Z:2 Transcribed by Bob Safranek, rjs@bell-labs.com"
M:C|
L:1/8
K:C
cB|\
"Dm"A2DE FAcA|"C"GECD E2EF|"Dm"DA,DE FEFG|"Am"Add2 fedc|\
"Dm"A2DE FAcA|
"C"GECD EDEF|"Dm"DA,DE FAcA|"C"GFEF "Dm"D2:|\
|:FG|\
"Dm"Add^c d3e|f2ed cAGF|
"C"ECEG cBcd|"Am"ecdc "(C)"AcGc|\
"Dm"Add^c d3e|f2ed cAGc|"Am"AEE2 cEE2|"C"CEGE "Dm"D2:|
